public/library/onramp-icon-light.svg

<svg xmlns="http://www.w3.org/2000/svg" width="138" height="32" viewBox="0 0 138 32" fill="none">
	<g clip-path="url(#clip0_38319_48258)">
		<g clip-path="url(#clip1_38319_48258)">
			<path fill-rule="evenodd" clip-rule="evenodd"
				d="M24.5066 10.4791V26.7869L26.7271 24.0531V4.27126L11.6547 20.1037H14.8932L24.5066 10.4791ZM16.268 20.1037H20.0532V16.3141L16.268 20.1037ZM21.0259 15.3402V24.8847H1.6725V27.9558H23.5339V12.8293L21.0259 15.3402ZM24.0202 28.9285H0.699783V24.3983L22.5285 2.54413H27.6998V24.3983L24.0202 28.9285Z"
				fill="#151515" />
		</g>
		<path
			d="M111.811 9.49152H115.468C116.112 9.49152 116.692 9.54956 117.21 9.66565C117.727 9.78174 118.17 9.97171 118.539 10.2356C118.909 10.4994 119.194 10.8371 119.394 11.2487C119.595 11.6603 119.695 12.1563 119.695 12.7368C119.695 13.3595 119.579 13.8819 119.347 14.304C119.115 14.7262 118.798 15.0692 118.397 15.333C118.006 15.5863 117.547 15.771 117.02 15.8871C116.492 16.0032 115.933 16.0612 115.342 16.0612H113.806V20.6996H111.811V9.49152ZM115.199 14.3832C115.526 14.3832 115.838 14.3621 116.133 14.3199C116.429 14.2671 116.692 14.1827 116.925 14.0666C117.157 13.9399 117.342 13.7711 117.479 13.56C117.616 13.3489 117.685 13.0745 117.685 12.7368C117.685 12.4096 117.616 12.1458 117.479 11.9453C117.342 11.7342 117.157 11.5706 116.925 11.4545C116.703 11.3384 116.444 11.2645 116.149 11.2329C115.864 11.1907 115.569 11.1696 115.262 11.1696H113.806V14.3832H115.199Z"
			fill="#151515" />
		<path
			d="M94.7156 9.49152H97.8342L100.747 17.4543H100.795L103.676 9.49152H106.81V20.6996H104.831V11.692H104.8L101.396 20.6996H100.003L96.6469 11.692H96.6153V20.6996H94.7156V9.49152Z"
			fill="#151515" />
		<path fill-rule="evenodd" clip-rule="evenodd"
			d="M86.2454 9.49152H84.5199L79.6441 20.6996H81.8762L85.3273 11.8661L88.7942 20.6996H91.0738L86.2454 9.49152Z"
			fill="#151515" />
		<path
			d="M68.3584 9.49152H72.2527C72.7804 9.49152 73.2922 9.54956 73.7883 9.66565C74.2843 9.77119 74.7223 9.9506 75.1022 10.2039C75.4927 10.4572 75.804 10.7896 76.0362 11.2012C76.2684 11.6128 76.3845 12.1141 76.3845 12.7051C76.3845 13.5178 76.1523 14.1827 75.6879 14.6998C75.2341 15.2064 74.6114 15.5494 73.8199 15.7288L76.8119 20.6996H74.4056L71.8094 15.9504H70.353V20.6996H68.3584V9.49152ZM71.9836 14.3199C72.2685 14.3199 72.5535 14.2987 72.8384 14.2565C73.1234 14.2143 73.3767 14.1352 73.5983 14.0191C73.8305 13.903 74.0204 13.7394 74.1682 13.5283C74.3159 13.3067 74.3898 13.027 74.3898 12.6893C74.3898 12.3832 74.3212 12.1352 74.184 11.9453C74.0468 11.7447 73.8727 11.5864 73.6616 11.4703C73.4505 11.3543 73.2078 11.2751 72.9334 11.2329C72.6696 11.1907 72.411 11.1696 72.1577 11.1696H70.353V14.3199H71.9836Z"
			fill="#151515" />
		<path
			d="M53.4731 9.49152H56.1168L61.3251 17.8817H61.3567V9.49152H63.3514V20.6996H60.8185L55.4994 12.0402H55.4677V20.6996H53.4731V9.49152Z"
			fill="#151515" />
		<path
			d="M37.205 15.0639C37.205 14.1669 37.3528 13.3595 37.6483 12.6418C37.9543 11.9136 38.3712 11.2962 38.8989 10.7897C39.4371 10.2831 40.0704 9.8926 40.7986 9.6182C41.5373 9.3438 42.3394 9.2066 43.2048 9.2066C44.0808 9.2066 44.8882 9.3438 45.6269 9.6182C46.3657 9.8926 47.0042 10.2831 47.5424 10.7897C48.0807 11.2962 48.4975 11.9136 48.793 12.6418C49.0991 13.3595 49.2521 14.1669 49.2521 15.0639C49.2521 15.9399 49.0991 16.742 48.793 17.4702C48.4975 18.1878 48.0807 18.8105 47.5424 19.3382C47.0042 19.8553 46.3657 20.2617 45.6269 20.5572C44.8882 20.8421 44.0808 20.9846 43.2048 20.9846C42.3394 20.9846 41.5373 20.8421 40.7986 20.5572C40.0704 20.2617 39.4371 19.8553 38.8989 19.3382C38.3712 18.8105 37.9543 18.1878 37.6483 17.4702C37.3528 16.742 37.205 15.9399 37.205 15.0639ZM39.3738 15.0639C39.3738 15.6655 39.4635 16.2196 39.6429 16.7261C39.8329 17.2222 40.0968 17.6549 40.4345 18.0243C40.7828 18.3936 41.1891 18.6839 41.6534 18.8949C42.1284 19.0955 42.6508 19.1957 43.2207 19.1957C43.7906 19.1957 44.313 19.0955 44.7879 18.8949C45.2628 18.6839 45.6691 18.3936 46.0069 18.0243C46.3551 17.6549 46.619 17.2222 46.7984 16.7261C46.9884 16.2196 47.0833 15.6655 47.0833 15.0639C47.0833 14.4835 46.9884 13.9452 46.7984 13.4492C46.619 12.9532 46.3604 12.5205 46.0227 12.1511C45.685 11.7817 45.2786 11.4915 44.8037 11.2804C44.3288 11.0693 43.8011 10.9638 43.2207 10.9638C42.6402 10.9638 42.1125 11.0693 41.6376 11.2804C41.1732 11.4915 40.7722 11.7817 40.4345 12.1511C40.0968 12.5205 39.8329 12.9532 39.6429 13.4492C39.4635 13.9452 39.3738 14.4835 39.3738 15.0639Z"
			fill="#151515" />
	</g>
	<defs>
		<clipPath id="clip0_38319_48258">
			<rect width="138" height="32" fill="white" />
		</clipPath>
		<clipPath id="clip1_38319_48258">
			<rect width="36.9381" height="27.2638" fill="white" transform="translate(0.422943 2.36804)" />
		</clipPath>
	</defs>
</svg>

<svg xmlns="http://www.w3.org/2000/svg" width="138" height="32" fill="none" viewBox="0 0 138 32"><g clip-path="url(#a)"><g clip-path="url(#b)"><path fill="#151515" fill-rule="evenodd" d="M24.507 10.48v16.307l2.22-2.734V4.271L11.655 20.104h3.238zm-8.239 9.624h3.785v-3.79zm4.758-4.764v9.545H1.673v3.07h21.86V12.83zM24.02 28.93H.7v-4.53L22.529 2.543h5.17v21.854z" clip-rule="evenodd"/></g><path fill="#151515" d="M111.811 9.492h3.657q.966 0 1.742.174t1.329.57q.555.395.855 1.013.301.617.301 1.488 0 .934-.348 1.567a2.87 2.87 0 0 1-.95 1.029q-.586.38-1.377.554a7.8 7.8 0 0 1-1.678.174h-1.536V20.7h-1.995zm3.388 4.891q.491 0 .934-.063a3 3 0 0 0 .792-.253 1.5 1.5 0 0 0 .554-.507q.206-.317.206-.823 0-.49-.206-.792a1.4 1.4 0 0 0-.554-.49 2.2 2.2 0 0 0-.776-.222 6 6 0 0 0-.887-.063h-1.456v3.213zM94.716 9.492h3.118l2.913 7.962h.048l2.881-7.962h3.134V20.7h-1.979v-9.008h-.031l-3.404 9.008h-1.393l-3.356-9.008h-.032V20.7h-1.9z"/><path fill="#151515" fill-rule="evenodd" d="M86.245 9.492H84.52L79.644 20.7h2.232l3.451-8.834 3.467 8.834h2.28z" clip-rule="evenodd"/><path fill="#151515" d="M68.358 9.492h3.895q.792 0 1.535.174a3.8 3.8 0 0 1 1.314.538q.585.38.934.997.349.618.349 1.504 0 1.22-.697 1.995-.681.76-1.868 1.029l2.992 4.97h-2.406l-2.597-4.749h-1.456v4.75h-1.995zm3.626 4.828q.428 0 .854-.063.428-.064.76-.238.349-.175.57-.49.222-.333.222-.84 0-.459-.206-.744a1.5 1.5 0 0 0-.522-.475 2.2 2.2 0 0 0-.729-.237 5 5 0 0 0-.775-.063h-1.805v3.15zM53.473 9.492h2.644l5.208 8.39h.032v-8.39h1.994V20.7H60.82l-5.32-8.66h-.031v8.66h-1.995zM37.205 15.064q0-1.345.443-2.422a5.5 5.5 0 0 1 1.25-1.852 5.6 5.6 0 0 1 1.9-1.172 6.9 6.9 0 0 1 2.407-.411q1.314 0 2.422.411a5.6 5.6 0 0 1 1.915 1.172 5.2 5.2 0 0 1 1.251 1.852q.46 1.077.46 2.422 0 1.314-.46 2.406a5.5 5.5 0 0 1-1.25 1.868 5.9 5.9 0 0 1-1.916 1.22 6.7 6.7 0 0 1-2.422.427 6.6 6.6 0 0 1-2.406-.428 5.9 5.9 0 0 1-1.9-1.219 5.9 5.9 0 0 1-1.25-1.868q-.444-1.092-.444-2.406m2.169 0q0 .902.269 1.662.285.744.791 1.298.523.555 1.22.87.711.303 1.567.302.855 0 1.567-.301a3.6 3.6 0 0 0 1.219-.87q.522-.555.791-1.299.285-.759.285-1.662 0-.87-.285-1.615a3.8 3.8 0 0 0-.775-1.298 3.6 3.6 0 0 0-1.22-.87 3.86 3.86 0 0 0-1.582-.317q-.87 0-1.583.316a3.7 3.7 0 0 0-1.203.871q-.507.554-.792 1.298a4.7 4.7 0 0 0-.27 1.615"/></g><defs><clipPath id="a"><path fill="#fff" d="M0 0h138v32H0z"/></clipPath><clipPath id="b"><path fill="#fff" d="M.423 2.368H37.36v27.264H.423z"/></clipPath></defs></svg>
